UI/Core-UI/SVG/comment_outline_24px.svg

<svg width="24" height="24" viewBox="0 0 24 24" fill="none" xmlns="http://www.w3.org/2000/svg">
<path d="M20 3H4C3.46957 3 2.96086 3.21071 2.58579 3.58579C2.21071 3.96086 2 4.46957 2 5V17C2 17.5304 2.21071 18.0391 2.58579 18.4142C2.96086 18.7893 3.46957 19 4 19H7V21.5C7.00142 21.6126 7.0401 21.7217 7.11 21.81C7.15606 21.8695 7.2152 21.9176 7.28283 21.9505C7.35046 21.9835 7.42477 22.0004 7.5 22C7.61265 21.9986 7.72165 21.9599 7.81 21.89L12 19H20C20.5304 19 21.0391 18.7893 21.4142 18.4142C21.7893 18.0391 22 17.5304 22 17V5C22 4.46957 21.7893 3.96086 21.4142 3.58579C21.0391 3.21071 20.5304 3 20 3ZM20 17H11.38L10.87 17.35L9 18.64V17H4V5H20V17ZM8 14L11 8H7L6 10H8L6 14H8ZM15 14L18 8H14L13 10H15L13 14H15Z" fill="#0F1621"/>
</svg>

<svg xmlns="http://www.w3.org/2000/svg" width="24" height="24" viewBox="0 0 24 24"><rect width="24" height="24" style="fill:none"/><path d="M20,3H4A2,2,0,0,0,2,5V17a2,2,0,0,0,2,2H7v2.5a.51.51,0,0,0,.11.31A.49.49,0,0,0,7.5,22a.51.51,0,0,0,.31-.11L12,19h8a2,2,0,0,0,2-2V5A2,2,0,0,0,20,3Zm0,14H11.38l-.51.35L9,18.64V17H4V5H20ZM8,14l3-6H7L6,10H8L6,14Zm7,0,3-6H14l-1,2h2l-2,4Z"/></svg>
